app/dist/common/images/shenzhen-inovance.svg

<svg height="18" viewBox="0 0 18 18" width="18" xmlns="http://www.w3.org/2000/svg"><path d="m0 0h18v18h-18z" fill="#f0f3fa"/><path d="m7 13v-8h.9c.18 0 .5.05.8.41l3.8 4.59v-5h1.5v8h-.66c-.15 0-.4-.09-.71-.5l-4.13-4.97v5.47zm-1.5-8h-1.5v8h1.5z" fill="#1b90cd"/></svg>

<!-- by TradingView --><svg width="18" height="18" viewBox="0 0 18 18" xmlns="http://www.w3.org/2000/svg"><path fill="#F0F3FA" d="M0 0h18v18H0z"/><path d="M7 13V5h.9c.18 0 .5.05.8.41L12.5 10V5H14v8h-.66c-.15 0-.4-.09-.71-.5L8.5 7.53V13H7ZM5.5 5H4v8h1.5V5Z" fill="#1B90CD"/></svg>
